public/svg/php.svg

<svg width="24" height="24" viewBox="0 0 24 24" fill="none" xmlns="http://www.w3.org/2000/svg">
<path d="M0 17.662L1.8 9.1948H5.964C7.764 9.2986 8.664 10.135 8.664 11.599C8.664 14.1076 6.5262 15.571 4.614 15.466H2.5872L2.1372 17.662H0ZM3.0378 13.8988H4.3878C5.4012 13.7938 6.3012 13.4806 6.414 11.704C6.414 11.0758 5.8512 10.7626 5.064 10.7626H3.6L3.0372 13.8988H3.0378ZM8.2458 15.466L10.0458 7H12.1842L11.7342 9.1948H13.7592C15.5592 9.2986 16.2348 10.135 16.0092 11.1808L15.222 15.466H12.972L13.7592 11.599C13.872 11.0758 13.872 10.7626 13.0842 10.7626H11.3958L10.3842 15.466H8.2458ZM15.078 17.662L16.878 9.1948H21.042C22.842 9.2986 23.742 10.135 23.742 11.599C23.742 14.1076 21.6042 15.571 19.692 15.466H17.6658L17.2158 17.662H15.078ZM18.1158 13.8988H19.4658C20.4792 13.7938 21.3792 13.4806 21.492 11.704C21.492 11.0758 20.9292 10.7626 20.142 10.7626H18.6792L18.1158 13.8988Z" fill="#6983B5"/>
</svg>

<svg xmlns="http://www.w3.org/2000/svg" width="24" height="24" fill="none" xmlns:v="https://vecta.io/nano"><path d="M0 17.662l1.8-8.467h4.164c1.8.104 2.7.94 2.7 2.404 0 2.509-2.138 3.972-4.05 3.867H2.587l-.45 2.196H0zm3.038-3.763h1.35c1.013-.105 1.913-.418 2.026-2.195 0-.628-.563-.941-1.35-.941H3.6l-.563 3.136h.001zm5.208 1.567L10.046 7h2.138l-.45 2.195h2.025c1.8.104 2.476.94 2.25 1.986l-.787 4.285h-2.25l.787-3.867c.113-.523.113-.836-.675-.836h-1.688l-1.012 4.703H8.246zm6.832 2.196l1.8-8.467h4.164c1.8.104 2.7.94 2.7 2.404 0 2.509-2.138 3.972-4.05 3.867h-2.026l-.45 2.196h-2.138zm3.038-3.763h1.35c1.013-.105 1.913-.418 2.026-2.195 0-.628-.563-.941-1.35-.941h-1.463l-.563 3.136z" fill="#6983b5"/></svg>
